X:1
T:Denn er hat seinen Engeln befohlen
T:Psalm 91:11-12 (Elias) Original G-Dur 
T:Felix Mendelssohn-Bartholdy (1809-1847) 4-stimmig bearbeitet von M. Sandner
Z:Chorbearbeitung fur vierstimmigen gemischten Chor a cappellaz Peter Schnur
%%score ( 1 2 ) ( 3 4 )
L:1/8
Q:1/4=95
M:4/4
K:D
V:1 treble nm="Sop/Alt"
V:2 treble 
V:3 bass nm="Ten/Bass"
V:4 bass 
V:1
"^Allegretto non troppo"!p! A2 |!<(! A2 A2 A2 A2!<)! | d4 F2 F2 | E2 F2 G2 B2 | A6 A2- | %5
w: |* * sei- nen||foh- * ü- *|dir, *|
 A2!<(! A2 B2!<)!!>(! A2 | G4!>)! G2 G2 | G2 F2 E2 B2 | A4 !breath!A2"^A" A2 | %9
w: |hü- * *|* * dei- *||
!<(! A2 A2 A2 A2!<)! | d4 F2 F2 | F2 E2 B2 B2 | ^A6"^cresc." A2- | A2 ^A2 B2 =A2 | ^G4 G4 | %15
w: * * sei- nen||||||
!mf! B2 B2"^cresc." c2 B2 | A4 A2 A2 | A2 c2 B2"^dim." A2 | ^G4 A4- | A2 A2 ^G2 F2 | E6 F2 | %21
w: |hü- * *|||||
 E4 !breath!E2"^B" E2 | E2!<(! A2 ^G2!<)! B2 | A4 A2 A2 | A2 A2 d2 d2 | c4 E2 E2 | %26
w: ||En- * *||* dass sie|
 E2"^cresc." EE F2 F2 | A4 G2 G2 | G2 GG A2 A2 | =c4 B2!f! D2 | G2 GG B2 B2 | d4!>(! B4!>)! | %32
w: dich auf den Hän- den|* * sie|dich auf den Hän- den|tra- gen, sie|dich auf den Hän- den|tra- gen|
!p! B4 B4 |"^cresc." A2 A2 (^G2 F2) | ^E2!<(! F2 ^G2!<)! A2 | B8 | A4 A4 | ^D2 A2 (^G2 F2) | %38
w: und du|* * Fuß *||Stein|sto- *|ein- nen Stein _|
!>(! F4 !breath!^E2!mf!"^C" ^G2!>)! | A2!<(! A2 A2 A2!<)! | d4 F2 F2 | E2 F2 G2 B2 | A4!p! z4 | %43
w: sto- ßest, *|* * * nen||foh- * * *||
 z8 | z4 G2 G2 |"^cresc." ^G2 GG G2 G2 |!f! A4 A4 | A4 A2 A2 | B4 d4 | (E6 FG) | %50
w: |dass sie||tra- gen,|dich * *|Hän- den|tra- * *|
 F4"^D"!p! D2!<(! E2 | F2 F2!<)! B4 | A2 F2 B4 | A2 D2"^cresc." D2 E2 | F2 F2!f! B4 | A4 A2 A2 | %56
w: gen, dass sie|dich be- hü-|ten, be- hü-|ten auf al- len|dei- nen We-|gen; dass sie|
 (A2 G2) (F2 G2) | (F4 E4) | A4!mf! A2 A2 | ((A2 G2)) ((F2 G2)) | F4 E4 | %61
w: dich * be- *|hü- *|ten, dass sie|dich * * *||
 !breath!F2"^cresc." F2 G2 ^G2 | (A2 d2) c2 B2 | A2 F2 E2 B2 |!>(! A8 | A4!>)!!mf! A2 A2 | %66
w: * sie dich be-|hü- * ten auf|al- len dei- nen|We-|gen, dich be-|
 (A6!>(! G2) | F4!>)!!mp! F2 F2 |!<(! (F6!<)!!>(! E2) | !breath!D2!>)!!p! A2 A2 A2 | %70
w: hü- *|ten, dich be-|hü- *|ten auf dei- nen|
!<(! (A6!<)!!>(! G2)!>)! | F2!p! F2 F2 F2 | (F6 E2) |!pp! !fermata!D6 || %74
w: We- *|gen, auf dei- nen|We- *|gen|
V:2
 F2 | F2 F2 G2 G2 | F4 D2 D2 | D2 D2 G2 G2 | F6 F2- | F2 F2 F2 F2 | F4 E2 D2 | C2 D2 E2 E2 | %8
w: Denn|er hat * *|En- geln be-|* len * ber|* dass|* sie dich be-|* ten auf|al- 1en * nen|
w: ||||||||
 E4 E2 E2 | F2 F2 G2 G2 | F4 D2 D2 | D2 D2 C2 E2 | F6 F2- | F2 F2 F2 F2 | F4 E4 | ^G2 G2 G2 G2 | %16
w: We- gen; denn|er hat * *|En- geln be-|foh- len ü- ber|dir, dass|* sie dich be-|hü- ten,|dass sie dich be|
w: ||||||||
 ^G4 F2 F2 | F2 F2 ^G2 F2 | E4 A4- | A2 F2 D2 D2 | (B,4 E2) D2 | C4 B,2 B,2 | C2 E2 E2 ^G2 | %23
w: * ten auf|al- len dei- nen|We- gen,|* auf al- 1en|dei- * nen|We- gen. Denn|er hat sei- nen|
w: |||||||
 A4 F2 F2 | F2 E2 A2 A2 | A4 E2 E2 | E2 EE E2 E2 | ^D4 E2 G2 | G2 GG G2 G2 | G4 G2 D2 | %30
w: * geln be-|foh- len ü- ber|dir, * *||tra- gen, *|||
w: |||||||
 D2 DD G2 G2 | G4 G4 | ^G4 G4 | F2 F2 F4 | C2 ^D2 ^E2 F2 | ^E6 ^G2 | ^G4 (F2 E2) | ^D8 | %38
w: |||dei- nen *|nicht an ei- nem||* ßest. *||
w: |||||Stein an|ei- nen *|Stein|
 ^D4 C2 ^E2 | F2 F2 =G2 G2 | F4 D2 D2 | D2 D2 D2 G2 | F4 D2 D2 | E2 EE F2 F2 | G4 =F4 | %45
w: * * Denn|er hat sei- *|En- geln be-|* len ü- ber|dir, dass sie|dich auf den Hän- den||
w: ||||||tra- gen|
 E2 EE E2 E2 | A4 F4 | F4 F2 F2 | (G2 F2) (E2 D2) | (E2 D2 C4) | D4 D2 D2 | D2 D2 G4 | D2 D2 G4 | %53
w: dich auf den Hän- den||* auf den||||||
w: ||||||||
 D2 D2 D2 D2 | D2 D2 G4 | F4 D2 D2 | (F2 G2) D4 | (D4 C4) | D4 F2 F2 | (F2 G2) D4 | D4 C4 | %61
w: ||||||* * be-|hü- ten,|
w: ||||||||
 D2 D2 E2 ^E2 | F4 E2 D2 | D2 D2 E2 G2 | (E2 F2 G4) | F4 F2 F2 | (D4 E4) | D4 D2 D2 | (D4 C4) | %69
w: dass * * *||||||||
w: ||||||||
 A,2 D2 D2 D2 | (D4 E4) | D2 D2 D2 D2 | (D4 C4) | A,6 || %74
w: |||||
w: |||||
V:3
 D2 | D2 D2 D2 C2 | D4 B,2 B,2 | B,2 D2 D2 C2 | D6 D2- | D2 D2 D2 D2 | B,4 B,2 B,2 | E2 A,2 D2 D2 | %8
w: Denn|er hat sei- nen|En- geln be-|foh- len ü- ber|dir, dass|* sie dich be-|hü- ten auf|al- len dei- nen|
w: ||||||||
 D4 C2 C2 | D2 D2 D2 C2 | D4 B,2 B,2 | B,2 E2 E2 C2 | C6 C2- | C2 C2 B,2 B,2 | B,4 B,4 | %15
w: We- gen; denn|er hat sei- nen|En- geln be-|foh- len ü- ber|dir, dass|* sie dich be-|hü- ten,|
w: |||||||
 E2 E2 E2 C2 | C4 C2 E2 | ^D2 D2 =D2 D2 | B,4 C4- | C2 B,2 B,2 B,2 | (^G,4 A,2) A,2 | %21
w: dass sie dich be-|hü- ten auf|al- len dei- nen|We- gen,|* auf al- len|dei- * nen|
w: ||||||
 A,4 ^G,2 G,2 | A,2 C2 B,2 D2 | C4 C2 C2 | B,2 C2 D2 F2 | E4 C2 C2 | =C2 CC C2 C2 | =C4 B,2 E,2 | %28
w: We- gen. Denn|er hat sei- nen|En- geln be-|foh- len ü- ber|dir, dass sie|dich auf den Hän- den|tra- gen, sie|
w: |||||||
 E,2 E,E, E,2 E,2 | E,4 D,2 B,2 | B,2 B,B, D2 D2 | B,4 D4 | D4 C4 | C2 C2 B,4 | C2 C2 B,2 A,2 | %35
w: dich auf den Hän- den|tra- gen *||||||
w: |||||||
 (^G,2 D2 C4) | C4 C4 | (^B,2 F,2 ^G,2 A,2) | A,4 ^G,2 C2 | C2 C2 E2 E2 | D4 =C2 C2 | %41
w: ||||||
w: ||||||
 B,2 A,2 B,2 C2 | D4 F,2 F,2 | A,2 A,A, A,2 A,2 | D2 DD D2 D2 | B,4 D4 | C2 CC C2 C2 | A,4 =C2 C2 | %48
w: |||dich auf den Hän- den|tra- gen|dich auf den Hän- den,|dich auf den|
w: |||tra- * * gen *||||
 D4 B,4 | (C2 B,2 A,4) | A,4 B,2 B,2 | D2 D2 D4 | D2 A,2 (D2 C2) | D2 A,2 B,2 B,2 | A,2 =C2 B,4 | %55
w: Hän- den|tra- * *|gen, dass sie|dich be- hü-|ten, be- hü- *|ten auf al- len|dei- nen We-|
w: |||||||
 F,4 F,2 F,2 | D,4 D,4 | (A,4 G,4) | F,4 D2 D2 | D4 z2 G,2 | A,8 | A,4 D2 D2 | D4 G,2 ^G,2 | %63
w: gen; dass sie|dich be-|hü- *|ten, dass sie|dich *||* dich be-|hü- ten auf|
w: ||||||||
 A,2 A,2 D2 D2 | (D4 C4) | D4 =C2 C2 | (B,4 ^C4) | A,4 D,2 D,2 | D,8 | F,2 =C2 C2 C2 | (F,4 A,4) | %71
w: al- len dei- nen|We- *|gen, dich be-|hü- *|ten, dich be-|hü-|ten auf dei- nen|We- *|
w: ||||||||
 A,2 A,2 A,2 A,2 | (A,4 G,4) | !fermata!F,6 || %74
w: gen, auf dei- nen|We- *|gen.|
w: |||
V:4
 D2 | D2 D2 A,2 A,2 | B,4 A,2 A,2 | G,2 A,2 B,2 G,2 | D6 D,2- | D,2 D,2 D,2 D,2 | E,4 E,2 E,2 | %7
w: |||||||
w: |||||||
 E,2 F,2 G,2 ^G,2 | A,4 A,2 A,2 | A,2 A,2 A,2 A,2 | B,4 A,2 A,2 | G,2 G,2 G,2 G,2 | F,6 F,2- | %13
w: ||||||
w: ||||||
 F,2 E,2 D,2 D,2 | E,4 E,4 | D,2 D,2 C,2 C,2 | F,4 F,2 F,2 | B,,2 B,,2 B,,2 B,,2 | E,4 F,4- | %19
w: ||||||
w: ||||||
 F,2 D,2 D,2 D,2 | (D,4 C,2) D,2 | E,4 E,2 E,2 | A,,2 A,2 E,2 E,2 | F,4 E,2 E,2 | D,2 E,2 F,2 D,2 | %25
w: ||||||
w: ||||||
 A,4 A,2 A,2 | A,2 A,A, A,2 A,2 | A,4 B,2 E,2 | D,2 D,D, =C,2 C,2 | =C,4 G,,2 G,2 | %30
w: ||||* * sie|
w: |||||
 G,2 G,G, G,2 G,2 | G,4 F,4 | F,4 ^E,4 | F,2 F,2 D,4 | C,2 C,2 C,2 C,2 | C,8 | C,4 C,4 | C,8 | %38
w: dich auf den Hän- den|tra- gen|und du|dei- nen Fuß|nich an ei- nen|Stein|sto- ßest,|Stein|
w: ||||||||
 C,4 C,2 C2 | F,2 F,2 C,2 C,2 | D,4 D,2 D,2 | D,2 D,2 G,2 G,2 | F,4 D,2 D,2 | =C,2 C,C, C,2 C,2 | %44
w: sto- ßest, Denn|er hat sei- nen|En- geln be-|foh- len ü- ber|dir, dass sie|dich auf den Hän- den|
w: ||||||
 B,,4 B,,4 | E,2 E,E, E,2 E,2 | F,4 F,4 | D,4 D,2 D,2 | G,,4 G,,4 | A,,8 | D,4 B,2 B,2 | %51
w: |||||||
w: |dich auf den Hän- den|tra- gen|||||
 A,2 A,2 G,4 | D,2 D,2 G,4 | F,2 F,2 G,2 G,2 | D,2 D,2 D,4 | D,4 =C,2 C,2 | B,,4 _B,,4 | A,,8 | %58
w: |||||||
w: |||||||
 D,4 =C,2 C,2 | B,,4 _B,,4 | A,,8 | D,4 A,2 A,2 | A,4 E,2 ^E,2 | F,2 D,2 A,,2 A,,2 | A,,8 | %65
w: |* be-|hü-|ten, * *||||
w: |||||||
 D,4 D,2 D,2 | D,8 | D,4 A,,2 A,,2 | A,,8 | D,2 F,2 F,2 F,2 | (D,4 C,4) | D,2 D,2 D,2 D,2 | A,,8 | %73
w: ||||||||
w: ||||||||
 [D,,D,]6 || %74
w: |
w: |

